src/view/frontend/web/svg/heroicons/solid/cog.svg

<svg viewBox="0 0 20 20" fill="currentColor" xmlns="http://www.w3.org/2000/svg">

<path fill-rule="evenodd" clip-rule="evenodd" d="M11.4892 3.17094C11.1102 1.60969 8.8898 1.60969 8.51078 3.17094C8.26594 4.17949 7.11045 4.65811 6.22416 4.11809C4.85218 3.28212 3.28212 4.85218 4.11809 6.22416C4.65811 7.11045 4.17949 8.26593 3.17094 8.51078C1.60969 8.8898 1.60969 11.1102 3.17094 11.4892C4.17949 11.7341 4.65811 12.8896 4.11809 13.7758C3.28212 15.1478 4.85218 16.7179 6.22417 15.8819C7.11045 15.3419 8.26594 15.8205 8.51078 16.8291C8.8898 18.3903 11.1102 18.3903 11.4892 16.8291C11.7341 15.8205 12.8896 15.3419 13.7758 15.8819C15.1478 16.7179 16.7179 15.1478 15.8819 13.7758C15.3419 12.8896 15.8205 11.7341 16.8291 11.4892C18.3903 11.1102 18.3903 8.8898 16.8291 8.51078C15.8205 8.26593 15.3419 7.11045 15.8819 6.22416C16.7179 4.85218 15.1478 3.28212 13.7758 4.11809C12.8896 4.65811 11.7341 4.17949 11.4892 3.17094ZM10 13C11.6569 13 13 11.6569 13 10C13 8.34315 11.6569 7 10 7C8.34315 7 7 8.34315 7 10C7 11.6569 8.34315 13 10 13Z" />
</svg>

<svg xmlns="http://www.w3.org/2000/svg" viewBox="0 0 20 20" fill="currentColor">
  <path fill-rule="evenodd" d="M11.49 3.17c-.38-1.56-2.6-1.56-2.98 0a1.532 1.532 0 01-2.286.948c-1.372-.836-2.942.734-2.106 2.106.54.886.061 2.042-.947 2.287-1.561.379-1.561 2.6 0 2.978a1.532 1.532 0 01.947 2.287c-.836 1.372.734 2.942 2.106 2.106a1.532 1.532 0 012.287.947c.379 1.561 2.6 1.561 2.978 0a1.533 1.533 0 012.287-.947c1.372.836 2.942-.734 2.106-2.106a1.533 1.533 0 01.947-2.287c1.561-.379 1.561-2.6 0-2.978a1.532 1.532 0 01-.947-2.287c.836-1.372-.734-2.942-2.106-2.106a1.532 1.532 0 01-2.287-.947zM10 13a3 3 0 100-6 3 3 0 000 6z" clip-rule="evenodd"/>
</svg>
